SVG_Azure_All/Operational Excellence.svg

<?xml version="1.0" encoding="UTF-8" standalone="no"?>
<!-- Generated by Microsoft Visio, SVG Export Operational Excellence.svg Page-1 -->

<svg
   xmlns:dc="http://purl.org/dc/elements/1.1/"
   xmlns:cc="http://creativecommons.org/ns#"
   xmlns:rdf="http://www.w3.org/1999/02/22-rdf-syntax-ns#"
   xmlns:svg="http://www.w3.org/2000/svg"
   xmlns="http://www.w3.org/2000/svg"
   xmlns:sodipodi="http://sodipodi.sourceforge.net/DTD/sodipodi-0.dtd"
   xmlns:inkscape="http://www.inkscape.org/namespaces/inkscape"
   width="0.47378901in"
   height="0.78835636in"
   viewBox="0 0 34.112742 56.761924"
   xml:space="preserve"
   class="st5"
   version="1.1"
   id="svg37"
   sodipodi:docname="Operational Excellence.svg"
   style="font-size:12px;overflow:visible;color-interpolation-filters:sRGB;fill:none;fill-rule:evenodd;stroke-linecap:square;stroke-miterlimit:3"
   inkscape:version="0.92.5 (2060ec1f9f, 2020-04-08)"><metadata
   id="metadata43"><rdf:RDF><cc:Work
       rdf:about=""><dc:format>image/svg+xml</dc:format><dc:type
         rdf:resource="http://purl.org/dc/dcmitype/StillImage" /></cc:Work></rdf:RDF></metadata><defs
   id="defs41" /><sodipodi:namedview
   pagecolor="#ffffff"
   bordercolor="#666666"
   borderopacity="1"
   objecttolerance="10"
   gridtolerance="10"
   guidetolerance="10"
   inkscape:pageopacity="0"
   inkscape:pageshadow="2"
   inkscape:window-width="640"
   inkscape:window-height="480"
   id="namedview39"
   showgrid="false"
   inkscape:zoom="1.2227107"
   inkscape:cx="22.741813"
   inkscape:cy="37.847706"
   inkscape:window-x="0"
   inkscape:window-y="0"
   inkscape:window-maximized="0"
   inkscape:current-layer="svg37" />
	<style
   type="text/css"
   id="style2">
	<![CDATA[
		.st1 {fill:#37c2b1;stroke:none;stroke-linecap:butt;stroke-width:44}
		.st2 {fill:#42e8ca;stroke:none;stroke-linecap:butt;stroke-width:44}
		.st3 {fill:#005ba1;stroke:none;stroke-linecap:butt;stroke-width:44}
		.st4 {fill:#ffca00;stroke:none;stroke-linecap:butt;stroke-width:44}
		.st5 {fill:none;fill-rule:evenodd;font-size:12px;overflow:visible;stroke-linecap:square;stroke-miterlimit:3}
	]]>
	</style>

	<g
   id="g35"
   transform="translate(-43.996966,-44.004488)">
		<title
   id="title4">Page-1</title>
		<g
   id="group2359-1"
   transform="translate(44.02,-44)">
			<title
   id="title6">Operational Excellence</title>
			<g
   id="group2360-2">
				<title
   id="title8"> Icon-nameAsset 3</title>
				<g
   id="group2361-3">
					<title
   id="title10">Sheet.2361</title>
					<g
   id="shape2362-4"
   transform="translate(14.7883)">
						<title
   id="title12">Sheet.2362</title>
						<path
   d="M 18.78,133.99 8.37,144.4 a 1.33936,1.28681 0 0 1 -1.86,0 1.3131,1.26157 0 0 1 -0.37,-0.66 L 0,114.93 a 1.28684,1.23634 0 0 1 0.76,-1.35 l 6.68,-2.62 a 1.33279,1.2805 0 0 1 1.72,0.61 l 9.88,21.01 a 1.27042,1.22057 0 0 1 -0.26,1.41 z"
   class="st1"
   id="path14"
   inkscape:connector-curvature="0"
   style="fill:#37c2b1;stroke:none;stroke-width:44;stroke-linecap:butt" />
					</g>
					<g
   id="shape2363-6"
   transform="translate(0,-2.87483e-4)">
						<title
   id="title17">Sheet.2363</title>
						<path
   d="m 0.37,133.99 10.4,10.41 a 1.33608,1.28365 -180 0 0 1.87,0 1.25729,1.20796 -180 0 0 0.36,-0.66 l 6.15,-28.81 a 1.28684,1.23634 -180 0 0 -0.77,-1.35 l -6.67,-2.62 a 1.33279,1.2805 -180 0 0 -1.72,0.61 L 0.1,132.58 a 1.2737,1.22373 -180 0 0 0.27,1.41 z"
   class="st2"
   id="path19"
   inkscape:connector-curvature="0"
   style="fill:#42e8ca;stroke:none;stroke-width:44;stroke-linecap:butt" />
					</g>
					<g
   id="shape2364-8"
   transform="translate(0.579159,-24.5074)">
						<title
   id="title22">Sheet.2364</title>
						<path
   d="m 18.04,114.02 1.31,-1.05 a 2.06156,1.98067 0 0 1 3.25,0.83 l 0.58,1.55 a 2.06485,1.98383 -180 0 0 2.3,1.26 l 1.68,-0.28 a 2.06156,1.98067 0 0 1 2.38,1.61 2.03858,1.95859 0 0 1 0,0.68 l -0.29,1.61 a 2.05828,1.97752 -180 0 0 1.31,2.21 l 1.6,0.56 a 2.05828,1.97752 0 0 1 1.22,2.54 1.96965,1.89236 0 0 1 -0.35,0.58 l -1.09,1.27 a 2.06156,1.98067 -180 0 0 0,2.52 l 1.09,1.26 a 2.06156,1.98067 0 0 1 -0.87,3.13 l -1.6,0.56 a 2.06156,1.98067 -180 0 0 -1.31,2.2 l 0.29,1.62 a 2.06156,1.98067 0 0 1 -1.68,2.28 2.10424,2.02167 0 0 1 -0.7,0 l -1.68,-0.27 a 2.06156,1.98067 -180 0 0 -2.3,1.26 l -0.58,1.53 a 2.05828,1.97752 0 0 1 -2.65,1.18 2.09767,2.01537 0 0 1 -0.61,-0.34 l -1.31,-1.05 a 2.06156,1.98067 -180 0 0 -2.63,0 l -1.31,1.05 a 2.06156,1.98067 0 0 1 -2.9,-0.27 2.09767,2.01537 0 0 1 -0.35,-0.59 l -0.59,-1.53 a 2.05828,1.97752 -180 0 0 -2.29,-1.26 l -1.67,0.28 a 2.05828,1.97752 0 0 1 -2.38,-1.61 2.10424,2.02167 0 0 1 0,-0.68 L 4.2,137.05 A 2.06813,1.98698 -180 0 0 2.89,134.84 L 1.28,134.29 A 2.05828,1.97752 0 0 1 0.41,131.16 L 1.5,129.9 a 2.055,1.97436 -180 0 0 0,-2.52 l -1.09,-1.26 a 2.06156,1.98067 0 0 1 0.87,-3.13 l 1.6,-0.56 a 2.06485,1.98383 -180 0 0 1.31,-2.21 L 3.9,118.61 a 2.06156,1.98067 0 0 1 1.68,-2.29 2.12393,2.0406 0 0 1 0.7,0 l 1.69,0.29 a 2.06156,1.98067 -180 0 0 2.3,-1.26 l 0.57,-1.54 a 2.06813,1.98698 0 0 1 3.25,-0.84 l 1.32,1.05 a 2.06156,1.98067 -180 0 0 2.63,0 z"
   class="st3"
   id="path24"
   inkscape:connector-curvature="0"
   style="fill:#005ba1;stroke:none;stroke-width:44;stroke-linecap:butt" />
					</g>
					<g
   id="shape2365-10"
   transform="translate(5.30777,-29.1094)">
						<title
   id="title27">Sheet.2365</title>
						<ellipse
   cx="11.9919"
   cy="133.239"
   rx="11.9919"
   ry="11.5213"
   class="st4"
   id="ellipse29"
   style="fill:#ffca00;stroke:none;stroke-width:44;stroke-linecap:butt" />
					</g>
				</g>
			</g>
		</g>
	</g>
</svg>

<?xml version="1.0" encoding="UTF-8" standalone="no"?>
<!DOCTYPE svg PUBLIC "-//W3C//DTD SVG 1.1//EN" "http://www.w3.org/Graphics/SVG/1.1/DTD/svg11.dtd">
<!-- Generated by Microsoft Visio, SVG Export Operational Excellence.svg Page-1 -->
<svg xmlns="http://www.w3.org/2000/svg" xmlns:xlink="http://www.w3.org/1999/xlink" xmlns:ev="http://www.w3.org/2001/xml-events"
		width="1.69592in" height="2.01056in" viewBox="0 0 122.106 144.761" xml:space="preserve" color-interpolation-filters="sRGB"
		class="st5">
	<style type="text/css">
	<![CDATA[
		.st1 {fill:#37c2b1;stroke:none;stroke-linecap:butt;stroke-width:44}
		.st2 {fill:#42e8ca;stroke:none;stroke-linecap:butt;stroke-width:44}
		.st3 {fill:#005ba1;stroke:none;stroke-linecap:butt;stroke-width:44}
		.st4 {fill:#ffca00;stroke:none;stroke-linecap:butt;stroke-width:44}
		.st5 {fill:none;fill-rule:evenodd;font-size:12px;overflow:visible;stroke-linecap:square;stroke-miterlimit:3}
	]]>
	</style>

	<g>
		<title>Page-1</title>
		<g id="group2344-1" transform="translate(44.02,-44)">
			<title>Operational Excellence</title>
			<g id="group2345-2">
				<title> Icon-nameAsset 3</title>
				<g id="group2346-3">
					<title>Sheet.2346</title>
					<g id="shape2347-4" transform="translate(14.7883,0)">
						<title>Sheet.2347</title>
						<path d="M18.78 133.99 L8.37 144.4 A1.33936 1.28681 0 0 1 6.51 144.4 A1.3131 1.26157 0 0 1 6.14 143.74 L0
									 114.93 A1.28684 1.23634 0 0 1 0.76 113.58 L7.44 110.96 A1.33279 1.2805 0 0 1 9.16 111.57 L19.04
									 132.58 A1.27042 1.22057 0 0 1 18.78 133.99 Z" class="st1"/>
					</g>
					<g id="shape2348-6" transform="translate(0,-0.000287483)">
						<title>Sheet.2348</title>
						<path d="M0.37 133.99 L10.77 144.4 A1.33608 1.28365 -180 0 0 12.64 144.4 A1.25729 1.20796 -180 0 0 13 143.74
									 L19.15 114.93 A1.28684 1.23634 -180 0 0 18.38 113.58 L11.71 110.96 A1.33279 1.2805 -180 0 0
									 9.99 111.57 L0.1 132.58 A1.2737 1.22373 -180 0 0 0.37 133.99 Z" class="st2"/>
					</g>
					<g id="shape2349-8" transform="translate(0.579159,-24.5074)">
						<title>Sheet.2349</title>
						<path d="M18.04 114.02 L19.35 112.97 A2.06156 1.98067 0 0 1 22.6 113.8 L23.18 115.35 A2.06485 1.98383 -180
									 0 0 25.48 116.61 L27.16 116.33 A2.06156 1.98067 0 0 1 29.54 117.94 A2.03858 1.95859 0 0 1 29.54
									 118.62 L29.25 120.23 A2.05828 1.97752 -180 0 0 30.56 122.44 L32.16 123 A2.05828 1.97752 0 0
									 1 33.38 125.54 A1.96965 1.89236 0 0 1 33.03 126.12 L31.94 127.39 A2.06156 1.98067 -180 0 0 31.94
									 129.91 L33.03 131.17 A2.06156 1.98067 0 0 1 32.16 134.3 L30.56 134.86 A2.06156 1.98067 -180
									 0 0 29.25 137.06 L29.54 138.68 A2.06156 1.98067 0 0 1 27.86 140.96 A2.10424 2.02167 0 0 1 27.16
									 140.96 L25.48 140.69 A2.06156 1.98067 -180 0 0 23.18 141.95 L22.6 143.48 A2.05828 1.97752 0
									 0 1 19.95 144.66 A2.09767 2.01537 0 0 1 19.34 144.32 L18.03 143.27 A2.06156 1.98067 -180 0 0
									 15.4 143.27 L14.09 144.32 A2.06156 1.98067 0 0 1 11.19 144.05 A2.09767 2.01537 0 0 1 10.84 143.46
									 L10.25 141.93 A2.05828 1.97752 -180 0 0 7.96 140.67 L6.29 140.95 A2.05828 1.97752 0 0 1 3.91
									 139.34 A2.10424 2.02167 0 0 1 3.91 138.66 L4.2 137.05 A2.06813 1.98698 -180 0 0 2.89 134.84
									 L1.28 134.29 A2.05828 1.97752 0 0 1 0.41 131.16 L1.5 129.9 A2.055 1.97436 -180 0 0 1.5 127.38
									 L0.41 126.12 A2.06156 1.98067 0 0 1 1.28 122.99 L2.88 122.43 A2.06485 1.98383 -180 0 0 4.19
									 120.22 L3.9 118.61 A2.06156 1.98067 0 0 1 5.58 116.32 A2.12393 2.0406 0 0 1 6.28 116.32 L7.97
									 116.61 A2.06156 1.98067 -180 0 0 10.27 115.35 L10.84 113.81 A2.06813 1.98698 0 0 1 14.09 112.97
									 L15.41 114.02 A2.06156 1.98067 -180 0 0 18.04 114.02 Z" class="st3"/>
					</g>
					<g id="shape2350-10" transform="translate(5.30777,-29.1094)">
						<title>Sheet.2350</title>
						<ellipse cx="11.9919" cy="133.239" rx="11.9919" ry="11.5213" class="st4"/>
					</g>
				</g>
			</g>
		</g>
	</g>
</svg>
